X:2730
T:Hunsess (?) through the Wood
O:england
M:6/8
L:1/8
S:Armitt MS
N:In the fifth bar before the end, this may or may not be a dotted note -
N:there are a lot of extraneous blodges on the page
K:A major
c2e cde|c2e cde|fed cAc|BGB dcB|c2e cde|c2e cde|fed cAc|B2 f2B2cd2e|fga
fed|cAc BGB|A2e2|B2c d2e|fga fed|e2a gfg|a2 efg||a2e cde|fed cAc dcB|a2e
cde|a2e cde|fed cAc|B2f2|B2 cd2e|fga fed cBc BGB|A2e2d2|B2cd2e|fga fed|
e2a gfg|a2 efg||e2d|cAA e2AA cAA eAA|fed cAc|BAB dcB|cAA dAA eAA eAA|fed
cAc|B2f2|B2c d2e|fga fed|cAc BGB |A2 e3|B2cd2e|fga fed|cAc BGB|A2A:||


